X:55
T:Japanese Hornpipe
S:Caitlín Nic Gabhann
R:hornpipe
M:4/4
L:1/8
K:D
(3efe ^de =dec2 | (3BcB AB GBFB | EFGA Bcde | fe^de c2cd |
(3efe ^de =dec2 | (3BcB AB GBFB | EFGA Bcde |1 fe (3dcB (3Ace (3agf :|2 fe (3dcB Acea |:
c'ea2 eac'a | e'2b2 b2ec' | b4 b2ac' | e'2a2 a2ea |
c'ea2 eac'a | e'2b2 b2ef| g3a gedB |1 (3ABA GB Acea :|2  (3BAB GB Aagf |]
